X: 30512
M: 6/8
L: 1/8
K: D
|:\
e2c g2f |
edc d2A | e2A g2f | edc d2d |\
f2e d2c | B2A G2F | EGB A2C | D3 D3 ::\
d2c c2B | B2A A2G | FGA AGF | (F2 E2) z2 |\
d3 dBG | A2A A2e | g3 gec | d2d d2d |\
f2e d2c | B2A G2F | EGB A2C | D3 D3 :|


